resources/haticons/SVG/live_tv.svg

<!-- Generated by IcoMoon.io -->
<svg version="1.1" xmlns="http://www.w3.org/2000/svg" width="24" height="24" viewBox="0 0 24 24">
<title>live_tv</title>
<path d="M9 9.984l6.984 4.031-6.984 3.984v-8.016zM21 20.016v-12h-18v12h18zM21 6q0.844 0 1.43 0.586t0.586 1.43v12q0 0.797-0.609 1.383t-1.406 0.586h-18q-0.797 0-1.406-0.586t-0.609-1.383v-12q0-0.844 0.586-1.43t1.43-0.586h7.594l-3.281-3.281 0.703-0.703 3.984 3.984 3.984-3.984 0.703 0.703-3.281 3.281h7.594z"></path>
</svg>

<svg xmlns="http://www.w3.org/2000/svg" width="24" height="24"><path d="M9 9.984l6.984 4.031L9 17.999V9.983zm12 10.032v-12H3v12h18zM21 6q.844 0 1.43.586t.586 1.43v12q0 .797-.609 1.383t-1.406.586h-18q-.797 0-1.406-.586t-.609-1.383v-12q0-.844.586-1.43T3.002 6h7.594L7.315 2.719l.703-.703L12.002 6l3.984-3.984.703.703L13.408 6h7.594z"/></svg>
